X:1
T:I Cannot Tell How Precious
T:James McGranahan
T:I Cannot Tell How Precious
T:Public Domain
T:Public Domain
C:James McGranahan
Z:Public Domain
%%score 1 ( 2 3 )
L:1/8
M:2/4
K:C
V:1 treble 
V:2 bass 
V:3 bass 
V:1
 [EG] | [Ec][CE] [CE][CE] | ([CE][EG]) [EG][EG] | [FA][B,D] [B,D][B,D] | [B,D]3 [CE] | %5
w: 1.~I|can- not tell how|pre- * cious The|Sav- ior is to|me, Since|
w: 2.~I|can- not do for|Je- * sus As|much as I should|like; But|
w: 3.~When-|e’er I think of|Je- * sus, I|can- not but re-|joice; To|
 [DF][FB] [FB][FB] | [FB]2 [FA][FA] | [EG][EG] [FA][DF] | [CE]3 [EG] | [Ec][CE] [CE][CE] | %10
w: I have Him ac-|cept- ed, And|He hath made me|free; I|can- not tell His|
w: I will e’er en-|dea- vor To|work with all my|might; For,|was not my dear|
w: me He’s ev- er|pre- cious, For|Him I raise my|voice: I|know He has in|
 ([CE][EG]) [EG][EG] | [FA][B,D] [B,D][B,D] | [B,D]3 [CE] | [DF][FB] [FB][FB] | [FB]2 [FA][FA] | %15
w: good- * ness, E-|nough to sa- tis-|fy; And|if you’ll on- ly|take Him, You’ll|
w: Sav- * ior For|sin- ners cru- ci-|fied? For|me, then sure- ly,|Je- sus Hung|
w: glo- * ry A|home pre- pared for|me, Where|I shall live for-|ev- er So|
 [EG][Ec] [Ec][Ec] | [Ec]3 ||"^Refrain" [EG] | [Ec][Ec] [Ec][Ec] | [Ec]2 [CE][EG] | %20
w: see the rea- son|why.||||
w: on the cross and|died.|I|can- not tell how|pre- cious The|
w: hap- py, and so|free.||||
 [EA][FA] [FA][FA] | [FA]3 [FA] | [^Fd][Fd] [Fd][Fd] | [^Fd]2 [Fc][Fc] | [GB][GB] [FA][FB] | %25
w: |||||
w: Sav- ior is to|me; I|on- ly can en-|treat you To|come, and taste and|
w: |||||
 [Ec]3 |] %26
w: |
w: see.|
w: |
V:2
 [C,C] | [C,G,][C,G,] [C,G,][C,G,] | (G,C) [C,C][C,C] | [G,,B,][G,,G,] [G,,G,][G,,G,] | %4
 [G,,G,]3 [G,,G,] | G,G, G,G, | G,2 G,G, | [C,G,][C,G,] [G,,G,][G,,G,] | [C,G,]3 [C,C] | %9
 [C,G,][C,G,] [C,G,][C,G,] | (G,C) [C,C][C,C] | [G,,B,][G,,G,] [G,,G,][G,,G,] | [G,,G,]3 [G,,G,] | %13
 G,G, G,G, | G,2 G,G, | [C,C][C,G,] [C,A,][C,A,] | [C,G,]3 || [C,C] | [C,G,][C,G,] [C,G,][C,G,] | %19
 [C,G,]2 [C,G,][C,C] | [F,C][F,C] [F,C][F,C] | [F,C]3 [F,C] | [D,C][D,C] [D,C][D,C] | %23
 [D,C]2 [D,A,][D,A,] | G,G, G,G, | [C,G,]3 |] %26
V:3
 x | x4 | C,2 x2 | x4 | x4 | G,G, G,G, | G,2 G,G, | x4 | x4 | x4 | C,2 x2 | x4 | x4 | G,G, G,G, | %14
 G,2 G,G, | x4 | x3 || x | x4 | x4 | x4 | x4 | x4 | x4 | G,G, G,G, | x3 |] %26

